svg/color/dough.svg

<?xml version="1.0" encoding="UTF-8" ?>
<!DOCTYPE svg PUBLIC "-//W3C//DTD SVG 1.1//EN" "http://www.w3.org/Graphics/SVG/1.1/DTD/svg11.dtd">
<svg width="250pt" height="250pt" viewBox="0 0 250 250" version="1.1" xmlns="http://www.w3.org/2000/svg">
<g id="#fffffeff">
<path fill="#fffffe" opacity="1.00" d=" M 0.00 0.00 L 250.00 0.00 L 250.00 250.00 L 0.00 250.00 L 0.00 0.00 M 196.44 38.51 C 194.59 39.78 192.62 40.97 191.08 42.64 C 189.01 43.87 187.01 45.21 185.10 46.68 C 182.59 48.13 180.13 49.71 177.93 51.60 C 175.26 52.80 173.13 54.92 170.84 56.70 L 170.08 57.25 C 168.89 56.02 166.39 57.78 167.39 59.25 C 166.80 59.50 165.62 60.00 165.03 60.25 L 164.13 59.84 C 163.83 90.21 164.07 120.58 164.00 150.95 C 162.62 151.77 161.16 152.46 159.96 153.54 C 151.94 158.00 143.61 162.06 136.10 167.35 C 135.02 166.10 132.38 167.56 133.22 169.10 C 130.52 169.84 128.32 171.66 125.89 172.95 C 122.80 173.40 120.81 170.18 117.92 169.58 C 112.30 166.40 106.88 162.64 101.13 159.83 C 96.42 157.07 91.95 153.60 86.80 151.79 C 86.60 151.58 86.22 151.14 86.02 150.93 C 86.20 135.15 85.50 119.36 86.50 103.60 L 86.93 103.09 C 92.67 101.06 97.84 97.22 103.12 94.08 C 109.76 91.09 115.74 86.62 122.20 83.22 L 123.04 82.69 C 124.35 83.61 125.66 83.60 126.95 82.64 C 135.31 87.47 143.44 92.88 152.22 96.90 C 151.39 98.47 154.09 99.88 155.16 98.60 L 155.86 99.20 C 158.93 88.69 156.84 69.64 155.94 60.40 C 145.43 54.98 135.92 47.71 124.98 43.12 C 123.23 43.88 121.13 44.40 119.85 45.86 C 112.41 48.98 105.76 53.78 98.82 57.83 C 94.70 59.85 90.71 62.28 86.97 64.90 C 83.29 66.13 79.69 68.27 76.84 70.81 C 73.30 72.20 70.09 74.32 66.94 76.42 C 65.34 75.41 62.18 77.02 62.30 78.94 C 61.96 79.16 61.28 79.60 60.94 79.83 C 57.50 80.76 54.91 83.36 52.04 85.31 L 51.18 84.84 C 50.81 113.23 51.02 141.63 51.06 170.02 L 52.06 169.94 C 52.35 170.22 52.94 170.79 53.24 171.07 C 53.05 173.13 56.42 174.49 58.06 173.50 L 58.69 174.02 C 61.97 176.28 65.44 178.43 69.18 179.85 C 70.72 181.49 72.72 182.78 74.99 183.04 C 76.79 186.16 81.57 187.40 84.87 189.05 C 88.61 191.64 92.63 194.29 96.87 196.05 C 102.85 200.16 109.61 203.52 116.07 206.94 C 118.93 209.80 125.04 214.30 129.13 210.19 C 139.99 203.63 151.45 198.03 161.95 190.88 C 165.51 189.37 168.96 187.40 172.04 185.11 C 174.96 183.98 178.15 182.45 180.18 180.17 C 182.91 179.04 185.71 177.87 187.95 175.90 C 189.80 175.14 191.72 174.41 193.34 173.21 C 194.89 172.21 197.31 171.69 197.99 169.88 L 198.94 170.02 C 199.10 127.69 198.93 85.34 199.02 43.00 C 206.23 38.41 194.53 36.82 196.44 38.51 Z" />
</g>
<g id="#d2bfa6ff">
<path fill="#d2bfa6" opacity="1.00" d=" M 196.44 38.51 C 194.53 36.82 206.23 38.41 199.02 43.00 C 198.93 85.34 199.10 127.69 198.94 170.02 L 197.99 169.88 C 197.72 126.48 198.58 83.05 197.58 39.67 C 197.29 39.38 196.73 38.80 196.44 38.51 Z" />
</g>
<g id="#aa8658ff">
<path fill="#aa8658" opacity="1.00" d=" M 191.08 42.64 C 192.62 40.97 194.59 39.78 196.44 38.51 C 196.73 38.80 197.29 39.38 197.58 39.67 C 198.58 83.05 197.72 126.48 197.99 169.88 C 197.31 171.69 194.89 172.21 193.34 173.21 C 194.86 130.85 193.57 88.39 194.01 45.99 C 194.51 43.96 192.44 43.43 191.08 42.64 Z" />
</g>
<g id="#76481aff">
<path fill="#76481a" opacity="1.00" d=" M 119.85 45.86 C 121.13 44.40 123.23 43.88 124.98 43.12 C 135.92 47.71 145.43 54.98 155.94 60.40 C 155.99 73.33 156.13 86.27 155.86 99.20 L 155.16 98.60 C 154.39 97.71 153.42 97.00 152.22 96.90 C 143.44 92.88 135.31 87.47 126.95 82.64 C 125.88 81.51 124.10 81.60 123.04 82.69 L 122.20 83.22 C 119.20 83.23 115.51 81.20 117.98 77.00 C 119.17 66.79 115.34 55.50 119.85 45.86 Z" />
</g>
<g id="#a27c4cff">
<path fill="#a27c4c" opacity="1.00" d=" M 185.10 46.68 C 187.01 45.21 189.01 43.87 191.08 42.64 C 192.44 43.43 194.51 43.96 194.01 45.99 C 193.57 88.39 194.86 130.85 193.34 173.21 C 191.72 174.41 189.80 175.14 187.95 175.90 C 188.03 133.62 188.05 91.34 187.96 49.07 C 188.12 47.53 186.01 47.44 185.10 46.68 Z" />
</g>
<g id="#916027ff">
<path fill="#916027" opacity="1.00" d=" M 98.82 57.83 C 105.76 53.78 112.41 48.98 119.85 45.86 C 115.34 55.50 119.17 66.79 117.98 77.00 C 115.51 81.20 119.20 83.23 122.20 83.22 C 115.74 86.62 109.76 91.09 103.12 94.08 C 101.19 93.98 98.35 95.96 97.21 93.66 C 97.79 81.84 94.70 69.22 98.82 57.83 Z" />
</g>
<g id="#9a7343ff">
<path fill="#9a7343" opacity="1.00" d=" M 177.93 51.60 C 180.13 49.71 182.59 48.13 185.10 46.68 C 186.01 47.44 188.12 47.53 187.96 49.07 C 188.05 91.34 188.03 133.62 187.95 175.90 C 185.71 177.87 182.91 179.04 180.18 180.17 C 182.25 176.12 181.88 171.42 182.03 167.02 C 181.98 129.68 182.00 92.33 182.02 54.99 C 182.61 52.47 179.70 52.05 177.93 51.60 Z" />
</g>
<g id="#93693aff">
<path fill="#93693a" opacity="1.00" d=" M 170.84 56.70 C 173.13 54.92 175.26 52.80 177.93 51.60 C 179.70 52.05 182.61 52.47 182.02 54.99 C 182.00 92.33 181.98 129.68 182.03 167.02 C 181.88 171.42 182.25 176.12 180.18 180.17 C 178.15 182.45 174.96 183.98 172.04 185.11 C 173.73 182.71 176.24 180.46 174.93 176.98 C 175.11 137.99 174.94 98.99 175.02 60.00 C 175.59 57.45 172.69 56.95 170.84 56.70 Z" />
</g>
<g id="#c9b6a1ff">
<path fill="#c9b6a1" opacity="1.00" d=" M 167.39 59.25 C 166.39 57.78 168.89 56.02 170.08 57.25 C 169.43 58.21 168.56 59.02 167.39 59.25 Z" />
<path fill="#c9b6a1" opacity="1.00" d=" M 123.04 82.69 C 124.10 81.60 125.88 81.51 126.95 82.64 C 125.66 83.60 124.35 83.61 123.04 82.69 Z" />
</g>
<g id="#885d2fff">
<path fill="#885d2f" opacity="1.00" d=" M 170.08 57.25 L 170.84 56.70 C 172.69 56.95 175.59 57.45 175.02 60.00 C 174.94 98.99 175.11 137.99 174.93 176.98 C 176.24 180.46 173.73 182.71 172.04 185.11 C 168.96 187.40 165.51 189.37 161.95 190.88 C 163.67 179.38 163.03 167.66 162.95 156.08 C 163.05 154.51 160.90 154.36 159.96 153.54 C 161.16 152.46 162.62 151.77 164.00 150.95 C 166.39 121.55 164.26 90.34 165.03 60.25 C 165.62 60.00 166.80 59.50 167.39 59.25 C 168.56 59.02 169.43 58.21 170.08 57.25 Z" />
</g>
<g id="#a57232ff">
<path fill="#a57232" opacity="1.00" d=" M 86.97 64.90 C 90.71 62.28 94.70 59.85 98.82 57.83 C 94.70 69.22 97.79 81.84 97.21 93.66 C 98.35 95.96 101.19 93.98 103.12 94.08 C 97.84 97.22 92.67 101.06 86.93 103.09 C 80.75 100.80 85.57 91.80 83.92 87.00 C 85.29 79.98 81.04 70.34 86.97 64.90 Z" />
</g>
<g id="#d8cbbeff">
<path fill="#d8cbbe" opacity="1.00" d=" M 155.94 60.40 C 156.84 69.64 158.93 88.69 155.86 99.20 C 156.13 86.27 155.99 73.33 155.94 60.40 Z" />
</g>
<g id="#d5c6b7ff">
<path fill="#d5c6b7" opacity="1.00" d=" M 164.13 59.84 L 165.03 60.25 C 164.26 90.34 166.39 121.55 164.00 150.95 C 164.07 120.58 163.83 90.21 164.13 59.84 Z" />
</g>
<g id="#b27d39ff">
<path fill="#b27d39" opacity="1.00" d=" M 76.84 70.81 C 79.69 68.27 83.29 66.13 86.97 64.90 C 81.04 70.34 85.29 79.98 83.92 87.00 C 85.57 91.80 80.75 100.80 86.93 103.09 L 86.50 103.60 C 83.89 118.45 84.25 136.04 86.02 150.93 C 86.22 151.14 86.60 151.58 86.80 151.79 C 84.61 152.99 81.26 153.83 83.99 158.00 C 84.48 168.31 82.74 178.87 84.87 189.05 C 81.57 187.40 76.79 186.16 74.99 183.04 C 75.02 147.35 74.99 111.66 74.98 75.98 C 74.87 74.05 75.96 72.42 76.84 70.81 Z" />
</g>
<g id="#bd883fff">
<path fill="#bd883f" opacity="1.00" d=" M 66.94 76.42 C 70.09 74.32 73.30 72.20 76.84 70.81 C 75.96 72.42 74.87 74.05 74.98 75.98 C 74.99 111.66 75.02 147.35 74.99 183.04 C 72.72 182.78 70.72 181.49 69.18 179.85 C 67.95 177.41 66.32 174.97 67.09 171.98 C 66.79 140.33 67.18 108.68 66.94 77.04 L 66.94 76.42 Z" />
</g>
<g id="#e3c9a6ff">
<path fill="#e3c9a6" opacity="1.00" d=" M 62.30 78.94 C 62.18 77.02 65.34 75.41 66.94 76.42 L 66.94 77.04 C 65.50 77.90 63.94 78.57 62.30 78.94 Z" />
</g>
<g id="#c89347ff">
<path fill="#c89347" opacity="1.00" d=" M 62.30 78.94 C 63.94 78.57 65.50 77.90 66.94 77.04 C 67.18 108.68 66.79 140.33 67.09 171.98 C 66.32 174.97 67.95 177.41 69.18 179.85 C 65.44 178.43 61.97 176.28 58.69 174.02 C 57.15 145.04 58.40 115.98 57.97 86.97 C 57.81 84.24 59.61 82.02 60.94 79.83 C 61.28 79.60 61.96 79.16 62.30 78.94 Z" />
</g>
<g id="#d29d50ff">
<path fill="#d29d50" opacity="1.00" d=" M 52.04 85.31 C 54.91 83.36 57.50 80.76 60.94 79.83 C 59.61 82.02 57.81 84.24 57.97 86.97 C 58.40 115.98 57.15 145.04 58.69 174.02 L 58.06 173.50 C 56.78 172.17 55.10 171.22 53.24 171.07 C 52.94 170.79 52.35 170.22 52.06 169.94 C 51.95 141.73 51.98 113.52 52.04 85.31 Z" />
</g>
<g id="#e9cca1ff">
<path fill="#e9cca1" opacity="1.00" d=" M 51.18 84.84 L 52.04 85.31 C 51.98 113.52 51.95 141.73 52.06 169.94 L 51.06 170.02 C 51.02 141.63 50.81 113.23 51.18 84.84 Z" />
</g>
<g id="#b1987fff">
<path fill="#b1987f" opacity="1.00" d=" M 152.22 96.90 C 153.42 97.00 154.39 97.71 155.16 98.60 C 154.09 99.88 151.39 98.47 152.22 96.90 Z" />
</g>
<g id="#e2d0b9ff">
<path fill="#e2d0b9" opacity="1.00" d=" M 86.02 150.93 C 84.25 136.04 83.89 118.45 86.50 103.60 C 85.50 119.36 86.20 135.15 86.02 150.93 Z" />
</g>
<g id="#a67333ff">
<path fill="#a67333" opacity="1.00" d=" M 83.99 158.00 C 81.26 153.83 84.61 152.99 86.80 151.79 C 91.95 153.60 96.42 157.07 101.13 159.83 C 98.27 160.30 92.61 158.57 95.98 165.01 C 96.50 175.32 94.73 185.88 96.87 196.05 C 92.63 194.29 88.61 191.64 84.87 189.05 C 82.74 178.87 84.48 168.31 83.99 158.00 Z" />
</g>
<g id="#784a1cff">
<path fill="#784a1c" opacity="1.00" d=" M 136.10 167.35 C 143.61 162.06 151.94 158.00 159.96 153.54 C 160.90 154.36 163.05 154.51 162.95 156.08 C 163.03 167.66 163.67 179.38 161.95 190.88 C 151.45 198.03 139.99 203.63 129.13 210.19 C 125.04 214.30 118.93 209.80 116.07 206.94 C 116.05 194.90 111.09 180.12 117.92 169.58 C 120.81 170.18 122.80 173.40 125.89 172.95 C 128.32 171.66 130.52 169.84 133.22 169.10 C 134.43 169.02 135.38 168.28 136.10 167.35 Z" />
</g>
<g id="#946228ff">
<path fill="#946228" opacity="1.00" d=" M 95.98 165.01 C 92.61 158.57 98.27 160.30 101.13 159.83 C 106.88 162.64 112.30 166.40 117.92 169.58 C 111.09 180.12 116.05 194.90 116.07 206.94 C 109.61 203.52 102.85 200.16 96.87 196.05 C 94.73 185.88 96.50 175.32 95.98 165.01 Z" />
</g>
<g id="#bca690ff">
<path fill="#bca690" opacity="1.00" d=" M 133.22 169.10 C 132.38 167.56 135.02 166.10 136.10 167.35 C 135.38 168.28 134.43 169.02 133.22 169.10 Z" />
</g>
<g id="#e8d0abff">
<path fill="#e8d0ab" opacity="1.00" d=" M 53.24 171.07 C 55.10 171.22 56.78 172.17 58.06 173.50 C 56.42 174.49 53.05 173.13 53.24 171.07 Z" />
</g>
</svg>

<?xml version="1.0" encoding="utf-8"?>
<!-- Generator: Adobe Illustrator 26.0.3, SVG Export Plug-In . SVG Version: 6.00 Build 0)  -->
<svg version="1.1" id="Layer_1" xmlns="http://www.w3.org/2000/svg" xmlns:xlink="http://www.w3.org/1999/xlink" x="0px" y="0px"
	 viewBox="0 0 250 250" style="enable-background:new 0 0 250 250;" xml:space="preserve">
<style type="text/css">
	.st0{fill:#D2BFA6;}
	.st1{fill:#AA8658;}
	.st2{fill:#76481A;}
	.st3{fill:#A27C4C;}
	.st4{fill:#916027;}
	.st5{fill:#9A7343;}
	.st6{fill:#93693A;}
	.st7{fill:#C9B6A1;}
	.st8{fill:#885D2F;}
	.st9{fill:#A57232;}
	.st10{fill:#D8CBBE;}
	.st11{fill:#D5C6B7;}
	.st12{fill:#B27D39;}
	.st13{fill:#BD883F;}
	.st14{fill:#E3C9A6;}
	.st15{fill:#C89347;}
	.st16{fill:#D29D50;}
	.st17{fill:#E9CCA1;}
	.st18{fill:#B1987F;}
	.st19{fill:#E2D0B9;}
	.st20{fill:#A67333;}
	.st21{fill:#784A1C;}
	.st22{fill:#946228;}
	.st23{fill:#BCA690;}
	.st24{fill:#E8D0AB;}
</style>
<g id="_x23_d2bfa6ff">
	<path class="st0" d="M196.4,38.5c-1.9-1.7,9.8-0.1,2.6,4.5c-0.1,42.3,0.1,84.7-0.1,127l-0.9-0.1c-0.3-43.4,0.6-86.8-0.4-130.2
		C197.3,39.4,196.7,38.8,196.4,38.5z"/>
</g>
<g id="_x23_aa8658ff">
	<path class="st1" d="M191.1,42.6c1.5-1.7,3.5-2.9,5.4-4.1c0.3,0.3,0.8,0.9,1.1,1.2c1,43.4,0.1,86.8,0.4,130.2
		c-0.7,1.8-3.1,2.3-4.7,3.3c1.5-42.4,0.2-84.8,0.7-127.2C194.5,44,192.4,43.4,191.1,42.6z"/>
</g>
<g id="_x23_76481aff">
	<path class="st2" d="M119.8,45.9c1.3-1.5,3.4-2,5.1-2.7c10.9,4.6,20.4,11.9,31,17.3c0.1,12.9,0.2,25.9-0.1,38.8l-0.7-0.6
		c-0.8-0.9-1.7-1.6-2.9-1.7c-8.8-4-16.9-9.4-25.3-14.3c-1.1-1.1-2.8-1-3.9,0.1l-0.8,0.5c-3,0-6.7-2-4.2-6.2
		C119.2,66.8,115.3,55.5,119.8,45.9z"/>
</g>
<g id="_x23_a27c4cff">
	<path class="st3" d="M185.1,46.7c1.9-1.5,3.9-2.8,6-4c1.4,0.8,3.4,1.3,2.9,3.4c-0.4,42.4,0.9,84.9-0.7,127.2
		c-1.6,1.2-3.5,1.9-5.4,2.7c0.1-42.3,0.1-84.6,0-126.8C188.1,47.5,186,47.4,185.1,46.7z"/>
</g>
<g id="_x23_916027ff">
	<path class="st4" d="M98.8,57.8c6.9-4.1,13.6-8.9,21-12c-4.5,9.6-0.7,20.9-1.9,31.1c-2.5,4.2,1.2,6.2,4.2,6.2
		c-6.5,3.4-12.4,7.9-19.1,10.9c-1.9-0.1-4.8,1.9-5.9-0.4C97.8,81.8,94.7,69.2,98.8,57.8z"/>
</g>
<g id="_x23_9a7343ff">
	<path class="st5" d="M177.9,51.6c2.2-1.9,4.7-3.5,7.2-4.9c0.9,0.8,3,0.8,2.9,2.4c0.1,42.3,0.1,84.5,0,126.8c-2.2,2-5,3.1-7.8,4.3
		c2.1-4.1,1.7-8.8,1.9-13.1c-0.1-37.3,0-74.7,0-112C182.6,52.5,179.7,52,177.9,51.6z"/>
</g>
<g id="_x23_93693aff">
	<path class="st6" d="M170.8,56.7c2.3-1.8,4.4-3.9,7.1-5.1c1.8,0.5,4.7,0.9,4.1,3.4c0,37.3,0,74.7,0,112c-0.1,4.4,0.2,9.1-1.9,13.1
		c-2,2.3-5.2,3.8-8.1,4.9c1.7-2.4,4.2-4.6,2.9-8.1c0.2-39,0-78,0.1-117C175.6,57.5,172.7,57,170.8,56.7z"/>
</g>
<g id="_x23_c9b6a1ff">
	<path class="st7" d="M167.4,59.2c-1-1.5,1.5-3.2,2.7-2C169.4,58.2,168.6,59,167.4,59.2z"/>
	<path class="st7" d="M123,82.7c1.1-1.1,2.8-1.2,3.9-0.1C125.7,83.6,124.3,83.6,123,82.7z"/>
</g>
<g id="_x23_885d2fff">
	<path class="st8" d="M170.1,57.2l0.8-0.5c1.9,0.2,4.8,0.8,4.2,3.3c-0.1,39,0.1,78-0.1,117c1.3,3.5-1.2,5.7-2.9,8.1
		c-3.1,2.3-6.5,4.3-10.1,5.8c1.7-11.5,1.1-23.2,1-34.8c0.1-1.6-2.1-1.7-3-2.5c1.2-1.1,2.7-1.8,4-2.6c2.4-29.4,0.3-60.6,1-90.7
		c0.6-0.2,1.8-0.8,2.4-1C168.6,59,169.4,58.2,170.1,57.2z"/>
</g>
<g id="_x23_a57232ff">
	<path class="st9" d="M87,64.9c3.7-2.6,7.7-5.1,11.8-7.1c-4.1,11.4-1,24-1.6,35.8c1.1,2.3,4,0.3,5.9,0.4c-5.3,3.1-10.5,7-16.2,9
		c-6.2-2.3-1.4-11.3-3-16.1C85.3,80,81,70.3,87,64.9z"/>
</g>
<g id="_x23_d8cbbeff">
	<path class="st10" d="M155.9,60.4c0.9,9.2,3,28.3-0.1,38.8C156.1,86.3,156,73.3,155.9,60.4z"/>
</g>
<g id="_x23_d5c6b7ff">
	<path class="st11" d="M164.1,59.8l0.9,0.4c-0.8,30.1,1.4,61.3-1,90.7C164.1,120.6,163.8,90.2,164.1,59.8z"/>
</g>
<g id="_x23_b27d39ff">
	<path class="st12" d="M76.8,70.8c2.9-2.5,6.5-4.7,10.1-5.9C81,70.3,85.3,80,83.9,87c1.7,4.8-3.2,13.8,3,16.1l-0.4,0.5
		c-2.6,14.8-2.2,32.4-0.5,47.3c0.2,0.2,0.6,0.7,0.8,0.9c-2.2,1.2-5.5,2-2.8,6.2c0.5,10.3-1.2,20.9,0.9,31.1c-3.3-1.7-8.1-2.9-9.9-6
		c0-35.7,0-71.4,0-107.1C74.9,74.1,76,72.4,76.8,70.8z"/>
</g>
<g id="_x23_bd883fff">
	<path class="st13" d="M66.9,76.4c3.1-2.1,6.4-4.2,9.9-5.6c-0.9,1.6-2,3.2-1.9,5.2c0,35.7,0,71.4,0,107.1c-2.3-0.3-4.3-1.5-5.8-3.2
		c-1.2-2.4-2.9-4.9-2.1-7.9c-0.3-31.6,0.1-63.3-0.1-94.9V76.4z"/>
</g>
<g id="_x23_e3c9a6ff">
	<path class="st14" d="M62.3,78.9c-0.1-1.9,3-3.5,4.6-2.5V77C65.5,77.9,63.9,78.6,62.3,78.9z"/>
</g>
<g id="_x23_c89347ff">
	<path class="st15" d="M62.3,78.9c1.6-0.4,3.2-1,4.6-1.9c0.2,31.6-0.2,63.3,0.1,94.9c-0.8,3,0.9,5.4,2.1,7.9
		c-3.7-1.4-7.2-3.6-10.5-5.8c-1.5-29-0.3-58-0.7-87.1c-0.2-2.7,1.6-5,3-7.1C61.3,79.6,62,79.2,62.3,78.9z"/>
</g>
<g id="_x23_d29d50ff">
	<path class="st16" d="M52,85.3c2.9-1.9,5.5-4.5,8.9-5.5c-1.3,2.2-3.1,4.4-3,7.1c0.4,29-0.8,58.1,0.7,87.1l-0.6-0.5
		c-1.3-1.3-3-2.3-4.8-2.4c-0.3-0.3-0.9-0.9-1.2-1.1C52,141.7,52,113.5,52,85.3z"/>
</g>
<g id="_x23_e9cca1ff">
	<path class="st17" d="M51.2,84.8l0.9,0.5c-0.1,28.2-0.1,56.4,0,84.6l-1,0.1C51,141.6,50.8,113.2,51.2,84.8z"/>
</g>
<g id="_x23_b1987fff">
	<path class="st18" d="M152.2,96.9c1.2,0.1,2.2,0.8,2.9,1.7C154.1,99.9,151.4,98.5,152.2,96.9z"/>
</g>
<g id="_x23_e2d0b9ff">
	<path class="st19" d="M86,150.9c-1.8-14.9-2.1-32.5,0.5-47.3C85.5,119.4,86.2,135.1,86,150.9z"/>
</g>
<g id="_x23_a67333ff">
	<path class="st20" d="M84,158c-2.7-4.2,0.6-5,2.8-6.2c5.1,1.8,9.6,5.3,14.3,8c-2.9,0.5-8.5-1.3-5.1,5.2c0.5,10.3-1.2,20.9,0.9,31
		c-4.2-1.8-8.3-4.4-12-7C82.7,178.9,84.5,168.3,84,158z"/>
</g>
<g id="_x23_784a1cff">
	<path class="st21" d="M136.1,167.4c7.5-5.3,15.8-9.4,23.9-13.8c0.9,0.8,3.1,1,3,2.5c0.1,11.6,0.7,23.3-1,34.8
		c-10.5,7.1-22,12.8-32.8,19.3c-4.1,4.1-10.2-0.4-13.1-3.2c0-12-5-26.8,1.8-37.4c2.9,0.6,4.9,3.8,8,3.4c2.4-1.3,4.6-3.1,7.3-3.8
		C134.4,169,135.4,168.3,136.1,167.4z"/>
</g>
<g id="_x23_946228ff">
	<path class="st22" d="M96,165c-3.4-6.4,2.3-4.7,5.1-5.2c5.8,2.8,11.2,6.6,16.8,9.8c-6.8,10.5-1.9,25.3-1.8,37.4
		c-6.5-3.4-13.2-6.8-19.2-10.9C94.7,185.9,96.5,175.3,96,165z"/>
</g>
<g id="_x23_bca690ff">
	<path class="st23" d="M133.2,169.1c-0.8-1.5,1.8-3,2.9-1.8C135.4,168.3,134.4,169,133.2,169.1z"/>
</g>
<g id="_x23_e8d0abff">
	<path class="st24" d="M53.2,171.1c1.9,0.1,3.5,1.1,4.8,2.4C56.4,174.5,53,173.1,53.2,171.1z"/>
</g>
</svg>
